ic16/ic16__cross-reference.svg

<svg fill="none" height="16" width="16" xmlns="http://www.w3.org/2000/svg" xmlns:xlink="http://www.w3.org/1999/xlink"><clipPath id="a"><path d="m0 0h16v16h-16z"/></clipPath><g clip-path="url(#a)"><path clip-rule="evenodd" d="m16 1.25v4.146a.25.25 0 0 1 -.427.177l-1.543-1.543-3.75 3.75a.75.75 0 1 1 -1.06-1.06l3.75-3.75-1.543-1.543a.25.25 0 0 1 .177-.427h4.146a.25.25 0 0 1 .25.25zm-13.25 2.25a.25.25 0 0 0 -.25.25v7.5c0 .138.112.25.25.25h2a.75.75 0 0 1 .75.75v2.19l2.72-2.72a.75.75 0 0 1 .53-.22h4.5a.25.25 0 0 0 .25-.25v-2.5a.75.75 0 1 1 1.5 0v2.5a1.75 1.75 0 0 1 -1.75 1.75h-4.19l-2.573 2.573a1.457 1.457 0 0 1 -2.487-1.03v-1.543h-1.25a1.75 1.75 0 0 1 -1.75-1.75v-7.5c0-.966.784-1.75 1.75-1.75h5.5a.75.75 0 0 1 0 1.5z" fill-rule="evenodd"/></g></svg>

<svg width="16" height="16" fill="none" xmlns="http://www.w3.org/2000/svg">
  <g clip-path="url(#ic16__cross-reference__clip0)">
    <path fill-rule="evenodd" clip-rule="evenodd" d="M16 1.25v4.146a.25.25 0 01-.427.177L14.03 4.03l-3.75 3.75a.75.75 0 11-1.06-1.06l3.75-3.75-1.543-1.543A.25.25 0 0111.604 1h4.146a.25.25 0 01.25.25zM2.75 3.5a.25.25 0 00-.25.25v7.5c0 .138.112.25.25.25h2a.75.75 0 01.75.75v2.19l2.72-2.72a.75.75 0 01.53-.22h4.5a.25.25 0 00.25-.25v-2.5a.75.75 0 111.5 0v2.5A1.75 1.75 0 0113.25 13H9.06l-2.573 2.573A1.457 1.457 0 014 14.543V13H2.75A1.75 1.75 0 011 11.25v-7.5C1 2.784 1.784 2 2.75 2h5.5a.75.75 0 010 1.5h-5.5z" />
  </g>
  <defs>
    <clipPath id="ic16__cross-reference__clip0">
      <path  d="M0 0h16v16H0z"/>
    </clipPath>
  </defs>
</svg>
